X:59
T:Hanging Out to Dry
R:double jig
C: 1988, 2010 L.E. McCullough  
M:6/8
L:1/8
K:Em
|:~E3 ~G3|edB ~A3|~B3 AGE|~F3 GFD|
~E3 ~G3|edB ~A3|~B3 ABA|GFD ~E3:|
|:~G3 BAG|~A3 edA|~B3 efg|agf e2f|
~g3 bag|~a3 edA|~B3 ABA|GFD ~E3:|
<end>
<start>
